svg/white/nlg.svg

<svg xmlns="http://www.w3.org/2000/svg" width="32" height="32" viewBox="0 0 32 32">
  <path fill="#FFF" fill-rule="evenodd" d="M16,32 C7.163444,32 0,24.836556 0,16 C0,7.163444 7.163444,0 16,0 C24.836556,0 32,7.163444 32,16 C32,24.836556 24.836556,32 16,32 Z M25.515224,14.8042885 C23.9970845,14.8260426 17.767166,14.8119861 16.170814,14.8212678 C16.1123829,14.8216025 16.0050996,14.9303059 16.0040303,14.9900125 C15.9919565,15.6591232 15.9913327,16.3286577 16.0043867,16.9977238 C16.0056342,17.0608217 16.1205583,17.1756163 16.183066,17.1758394 C18.5776498,17.1850319 20.972278,17.1829123 23.3668618,17.1895389 C23.4103899,17.1896281 23.4973126,17.2849221 23.4908524,17.323477 C22.8482885,21.155072 19.3342245,23.9003244 15.4556734,23.6075927 C11.1775053,23.284673 7.9702547,19.5396927 8.42133034,15.2911558 C8.75480866,12.1502693 10.4457242,9.92117974 13.402788,8.84382882 C16.326014,7.77879405 18.9987413,8.40511053 21.3058677,10.5186023 C21.3379904,10.5480317 21.4422441,10.551847 21.4704015,10.5242473 C21.9822028,10.0220071 22.4884794,9.51412199 22.9911696,9.00273395 C23.0168098,8.97662906 23.0218442,8.88452567 22.9988995,8.86268235 C20.7634364,6.73308136 18.1071268,5.76746828 15.0313963,6.04725912 C9.59944219,6.54140009 5.5304498,11.4574412 6.04369899,16.8742945 C6.57245259,22.4545822 11.4020072,26.4702948 16.965526,25.9555823 C22.3618601,25.4563542 26.4299169,20.5937947 25.9635819,15.2154516 C25.9494329,15.0522025 25.9201095,14.9475747 25.8511952,14.8847096 C25.7841588,14.8235576 25.6796598,14.8019231 25.515224,14.8042885 Z"/>
</svg>

<svg xmlns="http://www.w3.org/2000/svg" width="32" height="32"><path fill="#FFF" fill-rule="evenodd" d="M16 32C7.163 32 0 24.837 0 16S7.163 0 16 0s16 7.163 16 16-7.163 16-16 16zm9.515-17.196c-1.518.022-7.748.008-9.344.017-.059 0-.166.11-.167.169-.012.67-.013 1.339 0 2.008.002.063.117.178.18.178 2.394.009 4.788.007 7.183.014.043 0 .13.095.124.133-.643 3.832-4.157 6.577-8.035 6.285-4.278-.323-7.486-4.068-7.035-8.317.334-3.14 2.025-5.37 4.982-6.447 2.923-1.065 5.596-.439 7.903 1.675.032.029.136.033.164.005a119.48 119.48 0 0 0 1.521-1.521c.026-.026.03-.118.008-.14-2.236-2.13-4.892-3.096-7.968-2.816-5.432.494-9.5 5.41-8.987 10.827.528 5.58 5.358 9.596 10.922 9.082 5.396-.5 9.464-5.362 8.998-10.74-.015-.164-.044-.268-.113-.331-.067-.061-.171-.083-.336-.08z"/></svg>
